lib/healthicons/icons/solid/typography/yen.svg

<svg fill="none" height="48" viewBox="0 0 48 48" width="48" xmlns="http://www.w3.org/2000/svg"><path clip-rule="evenodd" d="m35.2804 10.4636c.8486.7071.9632 1.9683.2561 2.8168l-7.2664 8.7197h1.7299c1.1046 0 2 .8954 2 2 0 1.1045-.8954 2-2 2h-3.9999v2h3.9999c1.1046 0 2 .8954 2 2 0 1.1045-.8954 2-2 2h-3.9999v4c0 1.1045-.8955 2-2 2-1.1046 0-2-.8955-2-2v-4h-4c-1.1046 0-2-.8955-2-2 0-1.1046.8954-2 2-2h4v-2h-4c-1.1046 0-2-.8955-2-2 0-1.1046.8954-2 2-2h1.7299l-7.2664-8.7197c-.7071-.8485-.5925-2.1097.2561-2.8168.8485-.70712 2.1097-.59247 2.8168.2561l8.4636 10.1563 8.4635-10.1563c.7071-.84857 1.9683-.96322 2.8168-.2561z" fill="#333" fill-rule="evenodd"/></svg>

<svg width="48" height="48" viewBox="0 0 48 48" fill="none" xmlns="http://www.w3.org/2000/svg">
<path fill-rule="evenodd" clip-rule="evenodd" d="M35.2804 10.4636C36.129 11.1707 36.2436 12.4319 35.5365 13.2804L28.2701 22.0001H30C31.1046 22.0001 32 22.8955 32 24.0001C32 25.1046 31.1046 26.0001 30 26.0001H26.0001V28.0001H30C31.1046 28.0001 32 28.8955 32 30.0001C32 31.1046 31.1046 32.0001 30 32.0001H26.0001V36.0001C26.0001 37.1046 25.1046 38.0001 24.0001 38.0001C22.8955 38.0001 22.0001 37.1046 22.0001 36.0001V32.0001H18.0001C16.8955 32.0001 16.0001 31.1046 16.0001 30.0001C16.0001 28.8955 16.8955 28.0001 18.0001 28.0001H22.0001V26.0001H18.0001C16.8955 26.0001 16.0001 25.1046 16.0001 24.0001C16.0001 22.8955 16.8955 22.0001 18.0001 22.0001H19.73L12.4636 13.2804C11.7565 12.4319 11.8711 11.1707 12.7197 10.4636C13.5682 9.75648 14.8294 9.87113 15.5365 10.7197L24.0001 20.876L32.4636 10.7197C33.1707 9.87113 34.4319 9.75648 35.2804 10.4636Z" fill="#333333"/>
</svg>
